!!!OTL: BEI DER STILLEN MONDESHELLE
!!!ARE: Europa, Mitteleuropa, Deutschland
!!!SCT: F0325
!!!YEM: Copyright 1995, estate of Helmut Schaffrath.
**kern
*ICvox
*Ivox
*M4/4
*k[b-]
*F:
=1
{4f
4f
4cc
4cc
=2
8b-
8a
8b-
8cc
4a
4f}
=3
{8g
8b-
8a
8g
4cc
4f
=4
4b-
4a
2g}
=5
{4f
4f
4cc
4cc
=6
8dd
8ff
8ee
8dd
4cc
4a}
=7
{8b-
8a
8b-
8cc
4a
4f
=8
8g
8f
8g
8a
4f
4r}
==
!!!AGN: Jugend - Lied, Natur, Wander - Lied
!!!ONB: ESAC (Essen Associative Code) Database: FINK
!!!AMT: simple quadruple
!!!AIN: vox
!!!EED: Helmut Schaffrath
!!!EEV: 1.0
*-
